images/16758684.svg

<?xml version="1.0" encoding="UTF-8"?>
<svg xmlns="http://www.w3.org/2000/svg" xmlns:xlink="http://www.w3.org/1999/xlink" width="300pt" height="300pt" viewBox="0 0 300 300" version="1.1">
<defs>
<g>
<symbol overflow="visible" id="glyph0-0">
<path style="stroke:none;" d="M 0.453125 1.59375 L 0.453125 -6.34375 L 4.953125 -6.34375 L 4.953125 1.59375 Z M 0.953125 1.09375 L 4.453125 1.09375 L 4.453125 -5.84375 L 0.953125 -5.84375 Z M 0.953125 1.09375 "/>
</symbol>
<symbol overflow="visible" id="glyph0-1">
<path style="stroke:none;" d="M 0.890625 -6.5625 L 2.078125 -6.5625 L 4.984375 -1.078125 L 4.984375 -6.5625 L 5.84375 -6.5625 L 5.84375 0 L 4.65625 0 L 1.75 -5.484375 L 1.75 0 L 0.890625 0 Z M 0.890625 -6.5625 "/>
</symbol>
<symbol overflow="visible" id="glyph0-2">
<path style="stroke:none;" d="M 3.546875 -5.953125 C 2.898438 -5.953125 2.382812 -5.710938 2 -5.234375 C 1.625 -4.753906 1.4375 -4.101562 1.4375 -3.28125 C 1.4375 -2.445312 1.625 -1.789062 2 -1.3125 C 2.382812 -0.832031 2.898438 -0.59375 3.546875 -0.59375 C 4.191406 -0.59375 4.703125 -0.832031 5.078125 -1.3125 C 5.453125 -1.789062 5.640625 -2.445312 5.640625 -3.28125 C 5.640625 -4.101562 5.453125 -4.753906 5.078125 -5.234375 C 4.703125 -5.710938 4.191406 -5.953125 3.546875 -5.953125 Z M 3.546875 -6.6875 C 4.460938 -6.6875 5.195312 -6.375 5.75 -5.75 C 6.300781 -5.132812 6.578125 -4.3125 6.578125 -3.28125 C 6.578125 -2.238281 6.300781 -1.410156 5.75 -0.796875 C 5.195312 -0.179688 4.460938 0.125 3.546875 0.125 C 2.617188 0.125 1.878906 -0.179688 1.328125 -0.796875 C 0.773438 -1.410156 0.5 -2.238281 0.5 -3.28125 C 0.5 -4.3125 0.773438 -5.132812 1.328125 -5.75 C 1.878906 -6.375 2.617188 -6.6875 3.546875 -6.6875 Z M 3.546875 -6.6875 "/>
</symbol>
<symbol overflow="visible" id="glyph0-3">
<path style="stroke:none;" d="M 0.890625 -6.5625 L 1.765625 -6.5625 L 1.765625 -3.875 L 5 -3.875 L 5 -6.5625 L 5.890625 -6.5625 L 5.890625 0 L 5 0 L 5 -3.125 L 1.765625 -3.125 L 1.765625 0 L 0.890625 0 Z M 0.890625 -6.5625 "/>
</symbol>
</g>
</defs>
<g id="surface51777">
<rect x="0" y="0" width="300" height="300" style="fill:rgb(100%,100%,100%);fill-opacity:1;stroke:none;"/>
<path style="fill:none;stroke-width:1;stroke-linecap:butt;stroke-linejoin:miter;stroke:rgb(0%,0%,0%);stroke-opacity:1;stroke-miterlimit:10;" d="M 79.191406 146.78125 L 79.191406 146.78125 M 77.996094 144.03125 L 77.128906 144.605469 M 76.804688 141.277344 L 75.066406 142.425781 M 75.613281 138.523438 L 73 140.25 M 74.417969 135.773438 L 70.9375 138.070312 M 73.226562 133.019531 L 68.875 135.894531 M 72.03125 130.265625 L 66.8125 133.714844 M 70.839844 127.515625 L 64.75 131.539062 M 69.8125 125.148438 L 62.976562 129.664062 "/>
<path style="fill:none;stroke-width:1.2;stroke-linecap:butt;stroke-linejoin:miter;stroke:rgb(0%,0%,0%);stroke-opacity:1;stroke-miterlimit:10;" d="M 79.191406 146.78125 L 68.808594 167.550781 "/>
<path style="fill:none;stroke-width:1.2;stroke-linecap:butt;stroke-linejoin:miter;stroke:rgb(0%,0%,0%);stroke-opacity:1;stroke-miterlimit:10;" d="M 79.191406 146.78125 L 90.78125 146.085938 "/>
<path style="fill:none;stroke-width:1.2;stroke-linecap:butt;stroke-linejoin:miter;stroke:rgb(0%,0%,100%);stroke-opacity:1;stroke-miterlimit:10;" d="M 90.78125 146.085938 L 102.371094 145.386719 "/>
<path style="fill:none;stroke-width:1.2;stroke-linecap:butt;stroke-linejoin:miter;stroke:rgb(0%,0%,0%);stroke-opacity:1;stroke-miterlimit:10;" d="M 68.808594 167.550781 L 45.632812 168.945312 "/>
<path style="fill:none;stroke-width:1.2;stroke-linecap:butt;stroke-linejoin:miter;stroke:rgb(0%,0%,0%);stroke-opacity:1;stroke-miterlimit:10;" d="M 66.820312 173.144531 L 48.277344 174.261719 "/>
<path style="fill:none;stroke-width:1.2;stroke-linecap:butt;stroke-linejoin:miter;stroke:rgb(0%,0%,0%);stroke-opacity:1;stroke-miterlimit:10;" d="M 81.605469 186.929688 L 68.808594 167.550781 "/>
<path style="fill:none;stroke-width:1.2;stroke-linecap:butt;stroke-linejoin:miter;stroke:rgb(0%,0%,0%);stroke-opacity:1;stroke-miterlimit:10;" d="M 45.632812 168.945312 L 35.25 189.71875 "/>
<path style="fill:none;stroke-width:1.2;stroke-linecap:butt;stroke-linejoin:miter;stroke:rgb(0%,0%,0%);stroke-opacity:1;stroke-miterlimit:10;" d="M 35.25 189.71875 L 48.046875 209.09375 "/>
<path style="fill:none;stroke-width:1.2;stroke-linecap:butt;stroke-linejoin:miter;stroke:rgb(0%,0%,0%);stroke-opacity:1;stroke-miterlimit:10;" d="M 41.089844 188.644531 L 51.324219 204.144531 "/>
<path style="fill:none;stroke-width:1.2;stroke-linecap:butt;stroke-linejoin:miter;stroke:rgb(0%,0%,0%);stroke-opacity:1;stroke-miterlimit:10;" d="M 48.046875 209.09375 L 71.226562 207.699219 "/>
<path style="fill:none;stroke-width:1.2;stroke-linecap:butt;stroke-linejoin:miter;stroke:rgb(0%,0%,0%);stroke-opacity:1;stroke-miterlimit:10;" d="M 71.226562 207.699219 L 81.605469 186.929688 "/>
<path style="fill:none;stroke-width:1.2;stroke-linecap:butt;stroke-linejoin:miter;stroke:rgb(0%,0%,0%);stroke-opacity:1;stroke-miterlimit:10;" d="M 67.375 203.179688 L 75.679688 186.5625 "/>
<path style="fill:none;stroke-width:1.2;stroke-linecap:butt;stroke-linejoin:miter;stroke:rgb(0%,0%,100%);stroke-opacity:1;stroke-miterlimit:10;" d="M 102.371094 145.386719 L 109.746094 154.355469 "/>
<path style="fill:none;stroke-width:1.2;stroke-linecap:butt;stroke-linejoin:miter;stroke:rgb(0%,0%,0%);stroke-opacity:1;stroke-miterlimit:10;" d="M 109.746094 154.355469 L 117.121094 163.320312 "/>
<path style="fill:none;stroke-width:1.2;stroke-linecap:butt;stroke-linejoin:miter;stroke:rgb(0%,0%,0%);stroke-opacity:1;stroke-miterlimit:10;" d="M 114.863281 125.816406 L 108.617188 135.601562 "/>
<path style="fill:none;stroke-width:1.2;stroke-linecap:butt;stroke-linejoin:miter;stroke:rgb(0%,0%,100%);stroke-opacity:1;stroke-miterlimit:10;" d="M 108.617188 135.601562 L 102.371094 145.386719 "/>
<path style=" stroke:none;fill-rule:nonzero;fill:rgb(100%,100%,100%);fill-opacity:1;" d="M 99.371094 139.886719 L 106.371094 139.886719 L 106.371094 150.886719 L 99.371094 150.886719 Z M 99.371094 139.886719 "/>
<g style="fill:rgb(0%,0%,100%);fill-opacity:1;">
  <use xlink:href="#glyph0-1" x="99.371094" y="148.549805"/>
</g>
<path style="fill:none;stroke-width:1.2;stroke-linecap:butt;stroke-linejoin:miter;stroke:rgb(0%,0%,0%);stroke-opacity:1;stroke-miterlimit:10;" d="M 114.476562 162.632812 L 111.558594 173.871094 "/>
<path style="fill:none;stroke-width:1.2;stroke-linecap:butt;stroke-linejoin:miter;stroke:rgb(100%,0%,0%);stroke-opacity:1;stroke-miterlimit:10;" d="M 111.558594 173.871094 L 108.640625 185.109375 "/>
<path style="fill:none;stroke-width:1.2;stroke-linecap:butt;stroke-linejoin:miter;stroke:rgb(0%,0%,0%);stroke-opacity:1;stroke-miterlimit:10;" d="M 119.765625 164.007812 L 116.847656 175.242188 "/>
<path style="fill:none;stroke-width:1.2;stroke-linecap:butt;stroke-linejoin:miter;stroke:rgb(100%,0%,0%);stroke-opacity:1;stroke-miterlimit:10;" d="M 116.847656 175.242188 L 113.929688 186.480469 "/>
<path style="fill:none;stroke-width:1;stroke-linecap:butt;stroke-linejoin:miter;stroke:rgb(0%,0%,0%);stroke-opacity:1;stroke-miterlimit:10;" d="M 138.734375 154.832031 L 138.734375 154.832031 M 135.792969 155.425781 L 136.175781 156.394531 M 132.851562 156.019531 L 133.617188 157.960938 M 129.914062 156.617188 L 131.054688 159.527344 M 126.972656 157.210938 L 128.496094 161.09375 M 124.03125 157.804688 L 125.9375 162.65625 M 121.089844 158.398438 L 123.378906 164.222656 M 118.152344 158.996094 L 120.820312 165.789062 M 115.625 159.503906 L 118.621094 167.132812 "/>
<path style=" stroke:none;fill-rule:nonzero;fill:rgb(100%,100%,100%);fill-opacity:1;" d="M 107.285156 180.292969 L 115.285156 180.292969 L 115.285156 191.292969 L 107.285156 191.292969 Z M 107.285156 180.292969 "/>
<g style="fill:rgb(100%,0%,0%);fill-opacity:1;">
  <use xlink:href="#glyph0-2" x="107.285156" y="188.956055"/>
</g>
<path style="fill:none;stroke-width:1.2;stroke-linecap:butt;stroke-linejoin:miter;stroke:rgb(0%,0%,0%);stroke-opacity:1;stroke-miterlimit:10;" d="M 138.734375 154.832031 L 159.503906 165.210938 "/>
<path style="fill:none;stroke-width:1.2;stroke-linecap:butt;stroke-linejoin:miter;stroke:rgb(0%,0%,0%);stroke-opacity:1;stroke-miterlimit:10;" d="M 137.339844 131.652344 L 138.734375 154.832031 "/>
<path style="fill:none;stroke-width:1.2;stroke-linecap:butt;stroke-linejoin:miter;stroke:rgb(0%,0%,0%);stroke-opacity:1;stroke-miterlimit:10;" d="M 159.503906 165.210938 L 178.878906 152.414062 "/>
<path style="fill:none;stroke-width:1;stroke-linecap:butt;stroke-linejoin:miter;stroke:rgb(0%,0%,0%);stroke-opacity:1;stroke-miterlimit:10;" d="M 177.484375 129.238281 L 177.484375 129.238281 M 177.140625 132.21875 L 178.183594 132.15625 M 176.800781 135.199219 L 178.882812 135.074219 M 176.457031 138.179688 L 179.578125 137.992188 M 176.113281 141.160156 L 180.277344 140.90625 M 175.769531 144.140625 L 180.976562 143.824219 M 175.425781 147.121094 L 181.671875 146.742188 M 175.085938 150.097656 L 182.371094 149.660156 M 174.789062 152.660156 L 182.96875 152.167969 "/>
<path style=" stroke:none;fill-rule:nonzero;fill:rgb(0%,0%,0%);fill-opacity:1;" d="M 177.484375 129.238281 L 158.546875 115.191406 L 154.882812 122.519531 Z M 177.484375 129.238281 "/>
<path style="fill:none;stroke-width:1.2;stroke-linecap:butt;stroke-linejoin:miter;stroke:rgb(0%,0%,0%);stroke-opacity:1;stroke-miterlimit:10;" d="M 177.484375 129.238281 L 196.859375 116.441406 "/>
<path style="fill:none;stroke-width:1.2;stroke-linecap:butt;stroke-linejoin:miter;stroke:rgb(0%,0%,0%);stroke-opacity:1;stroke-miterlimit:10;" d="M 156.714844 118.855469 L 137.339844 131.652344 "/>
<path style="fill:none;stroke-width:1.2;stroke-linecap:butt;stroke-linejoin:miter;stroke:rgb(0%,0%,0%);stroke-opacity:1;stroke-miterlimit:10;" d="M 156.714844 118.855469 L 155.320312 95.675781 "/>
<path style=" stroke:none;fill-rule:nonzero;fill:rgb(0%,0%,0%);fill-opacity:1;" d="M 137.339844 131.652344 L 115.894531 121.851562 L 113.835938 129.78125 Z M 137.339844 131.652344 "/>
<path style="fill:none;stroke-width:1.2;stroke-linecap:butt;stroke-linejoin:miter;stroke:rgb(0%,0%,0%);stroke-opacity:1;stroke-miterlimit:10;" d="M 117.40625 124.816406 L 113.164062 114.011719 "/>
<path style="fill:none;stroke-width:1.2;stroke-linecap:butt;stroke-linejoin:miter;stroke:rgb(100%,0%,0%);stroke-opacity:1;stroke-miterlimit:10;" d="M 113.164062 114.011719 L 108.917969 103.203125 "/>
<path style="fill:none;stroke-width:1.2;stroke-linecap:butt;stroke-linejoin:miter;stroke:rgb(0%,0%,0%);stroke-opacity:1;stroke-miterlimit:10;" d="M 112.320312 126.816406 L 108.078125 116.007812 "/>
<path style="fill:none;stroke-width:1.2;stroke-linecap:butt;stroke-linejoin:miter;stroke:rgb(100%,0%,0%);stroke-opacity:1;stroke-miterlimit:10;" d="M 108.078125 116.007812 L 103.832031 105.203125 "/>
<path style=" stroke:none;fill-rule:nonzero;fill:rgb(100%,100%,100%);fill-opacity:1;" d="M 98.375 98.703125 L 106.375 98.703125 L 106.375 109.703125 L 98.375 109.703125 Z M 98.375 98.703125 "/>
<g style="fill:rgb(100%,0%,0%);fill-opacity:1;">
  <use xlink:href="#glyph0-2" x="98.375" y="107.366211"/>
</g>
<path style="fill:none;stroke-width:1.2;stroke-linecap:butt;stroke-linejoin:miter;stroke:rgb(0%,0%,0%);stroke-opacity:1;stroke-miterlimit:10;" d="M 155.320312 95.675781 L 174.695312 82.878906 "/>
<path style="fill:none;stroke-width:1;stroke-linecap:butt;stroke-linejoin:miter;stroke:rgb(0%,0%,0%);stroke-opacity:1;stroke-miterlimit:10;" d="M 155.320312 95.675781 L 155.320312 95.675781 M 152.910156 93.890625 L 152.445312 94.824219 M 150.5 92.101562 L 149.570312 93.96875 M 148.09375 90.316406 L 146.695312 93.113281 M 145.683594 88.527344 L 143.816406 92.257812 M 143.273438 86.742188 L 140.941406 91.40625 M 140.863281 84.953125 L 138.066406 90.550781 M 138.453125 83.167969 L 135.191406 89.695312 M 136.382812 81.632812 L 132.71875 88.960938 "/>
<path style="fill:none;stroke-width:1.2;stroke-linecap:butt;stroke-linejoin:miter;stroke:rgb(0%,0%,0%);stroke-opacity:1;stroke-miterlimit:10;" d="M 174.695312 82.878906 L 195.464844 93.261719 "/>
<path style="fill:none;stroke-width:1;stroke-linecap:butt;stroke-linejoin:miter;stroke:rgb(0%,0%,0%);stroke-opacity:1;stroke-miterlimit:10;" d="M 174.695312 82.878906 L 174.695312 82.878906 M 175.039062 79.902344 L 174 79.964844 M 175.382812 76.921875 L 173.300781 77.046875 M 175.726562 73.941406 L 172.601562 74.128906 M 176.066406 70.960938 L 171.90625 71.210938 M 176.410156 67.980469 L 171.207031 68.292969 M 176.753906 65 L 170.507812 65.375 M 177.097656 62.019531 L 169.8125 62.457031 M 177.390625 59.457031 L 169.210938 59.949219 "/>
<path style="fill:none;stroke-width:1.2;stroke-linecap:butt;stroke-linejoin:miter;stroke:rgb(0%,0%,0%);stroke-opacity:1;stroke-miterlimit:10;" d="M 195.464844 93.261719 L 196.859375 116.441406 "/>
<path style="fill:none;stroke-width:1.2;stroke-linecap:butt;stroke-linejoin:miter;stroke:rgb(0%,0%,0%);stroke-opacity:1;stroke-miterlimit:10;" d="M 196.859375 116.441406 L 207.246094 121.632812 "/>
<path style="fill:none;stroke-width:1.2;stroke-linecap:butt;stroke-linejoin:miter;stroke:rgb(0%,0%,100%);stroke-opacity:1;stroke-miterlimit:10;" d="M 207.246094 121.632812 L 217.632812 126.820312 "/>
<path style="fill:none;stroke-width:1.2;stroke-linecap:butt;stroke-linejoin:miter;stroke:rgb(0%,0%,0%);stroke-opacity:1;stroke-miterlimit:10;" d="M 196.496094 122.367188 L 204.804688 126.519531 "/>
<path style="fill:none;stroke-width:1.2;stroke-linecap:butt;stroke-linejoin:miter;stroke:rgb(0%,0%,100%);stroke-opacity:1;stroke-miterlimit:10;" d="M 204.804688 126.519531 L 213.113281 130.671875 "/>
<path style="fill:none;stroke-width:1.2;stroke-linecap:butt;stroke-linejoin:miter;stroke:rgb(0%,0%,100%);stroke-opacity:1;stroke-miterlimit:10;" d="M 217.632812 126.820312 L 218.328125 138.410156 "/>
<path style="fill:none;stroke-width:1.2;stroke-linecap:butt;stroke-linejoin:miter;stroke:rgb(100%,0%,0%);stroke-opacity:1;stroke-miterlimit:10;" d="M 218.328125 138.410156 L 219.027344 150 "/>
<path style=" stroke:none;fill-rule:nonzero;fill:rgb(100%,100%,100%);fill-opacity:1;" d="M 214.632812 121.320312 L 221.632812 121.320312 L 221.632812 132.320312 L 214.632812 132.320312 Z M 214.632812 121.320312 "/>
<g style="fill:rgb(0%,0%,100%);fill-opacity:1;">
  <use xlink:href="#glyph0-1" x="214.632812" y="129.983398"/>
</g>
<path style="fill:none;stroke-width:1.2;stroke-linecap:butt;stroke-linejoin:miter;stroke:rgb(100%,0%,0%);stroke-opacity:1;stroke-miterlimit:10;" d="M 219.027344 150 L 229.410156 155.191406 "/>
<path style="fill:none;stroke-width:1.2;stroke-linecap:butt;stroke-linejoin:miter;stroke:rgb(0%,0%,0%);stroke-opacity:1;stroke-miterlimit:10;" d="M 229.410156 155.191406 L 239.796875 160.382812 "/>
<path style=" stroke:none;fill-rule:nonzero;fill:rgb(100%,100%,100%);fill-opacity:1;" d="M 215.027344 144.5 L 223.027344 144.5 L 223.027344 155.5 L 215.027344 155.5 Z M 215.027344 144.5 "/>
<g style="fill:rgb(100%,0%,0%);fill-opacity:1;">
  <use xlink:href="#glyph0-2" x="215.027344" y="153.163086"/>
</g>
<path style="fill:none;stroke-width:1.2;stroke-linecap:butt;stroke-linejoin:miter;stroke:rgb(0%,0%,0%);stroke-opacity:1;stroke-miterlimit:10;" d="M 239.796875 160.382812 L 241.191406 183.558594 "/>
<path style="fill:none;stroke-width:1.2;stroke-linecap:butt;stroke-linejoin:miter;stroke:rgb(0%,0%,0%);stroke-opacity:1;stroke-miterlimit:10;" d="M 241.191406 183.558594 L 261.960938 193.941406 "/>
<path style="fill:none;stroke-width:1.2;stroke-linecap:butt;stroke-linejoin:miter;stroke:rgb(0%,0%,0%);stroke-opacity:1;stroke-miterlimit:10;" d="M 261.960938 193.941406 L 263.355469 217.121094 "/>
<path style="fill:none;stroke-width:1.2;stroke-linecap:butt;stroke-linejoin:miter;stroke:rgb(0%,0%,0%);stroke-opacity:1;stroke-miterlimit:10;" d="M 263.355469 217.121094 L 264.75 240.296875 "/>
<path style="fill:none;stroke-width:1.2;stroke-linecap:butt;stroke-linejoin:miter;stroke:rgb(0%,0%,0%);stroke-opacity:1;stroke-miterlimit:10;" d="M 258.042969 219.765625 L 259.15625 238.308594 "/>
<path style="fill:none;stroke-width:1.2;stroke-linecap:butt;stroke-linejoin:miter;stroke:rgb(0%,0%,0%);stroke-opacity:1;stroke-miterlimit:10;" d="M 268.949219 219.109375 L 270.0625 237.652344 "/>
<path style=" stroke:none;fill-rule:nonzero;fill:rgb(100%,100%,100%);fill-opacity:1;" d="M 166.300781 54.203125 L 181.300781 54.203125 L 181.300781 65.203125 L 166.300781 65.203125 Z M 166.300781 54.203125 "/>
<g style="fill:rgb(100%,0%,0%);fill-opacity:1;">
  <use xlink:href="#glyph0-3" x="166.300781" y="62.866211"/>
  <use xlink:href="#glyph0-2" x="173.31543" y="62.866211"/>
</g>
<path style=" stroke:none;fill-rule:nonzero;fill:rgb(100%,100%,100%);fill-opacity:1;" d="M 119.550781 79.796875 L 134.550781 79.796875 L 134.550781 90.796875 L 119.550781 90.796875 Z M 119.550781 79.796875 "/>
<g style="fill:rgb(100%,0%,0%);fill-opacity:1;">
  <use xlink:href="#glyph0-3" x="119.550781" y="88.459961"/>
  <use xlink:href="#glyph0-2" x="126.56543" y="88.459961"/>
</g>
</g>
</svg>

<svg xmlns="http://www.w3.org/2000/svg" xmlns:xlink="http://www.w3.org/1999/xlink" width="300pt" height="300pt" viewBox="0 0 300 300"><defs><symbol overflow="visible"><path d="M.453 1.594v-7.938h4.5v7.938zm.5-.5h3.5v-6.938h-3.5zm0 0"/></symbol><symbol overflow="visible" id="a"><path d="M.89-6.563H2.08l2.906 5.485v-5.484h.86V0H4.656L1.75-5.484V0H.89zm0 0"/></symbol><symbol overflow="visible" id="b"><path d="M3.547-5.953c-.65 0-1.164.242-1.547.72-.375.48-.563 1.13-.563 1.952 0 .835.188 1.49.563 1.967.383.48.898.72 1.547.72.644 0 1.156-.24 1.53-.72.376-.476.564-1.132.564-1.968 0-.822-.187-1.474-.562-1.954-.375-.477-.887-.72-1.53-.72zm0-.734c.914 0 1.648.312 2.203.937.55.617.828 1.438.828 2.47 0 1.042-.277 1.87-.828 2.483-.555.617-1.29.922-2.203.922-.93 0-1.668-.305-2.22-.922C.774-1.41.5-2.237.5-3.28c0-1.033.273-1.853.828-2.47.55-.625 1.29-.938 2.22-.938zm0 0"/></symbol><symbol overflow="visible" id="c"><path d="M.89-6.563h.876v2.688H5v-2.688h.89V0H5v-3.125H1.766V0H.89zm0 0"/></symbol></defs><g><path fill="#fff" d="M0 0h300v300H0z"/><path d="M79.19 146.78m-1.194-2.75l-.867.575m-.325-3.328l-1.74 1.15m.548-3.904L73 140.25m1.418-4.477l-3.48 2.297m2.29-5.05l-4.353 2.875m3.156-5.63l-5.218 3.45m4.028-6.2l-6.09 4.024m5.063-6.392l-6.836 4.516" stroke="#000" stroke-miterlimit="10" fill="none"/><path d="M79.19 146.78l-10.38 20.77M79.19 146.78l11.59-.694" stroke-width="1.2" stroke="#000" stroke-miterlimit="10" fill="none"/><path d="M90.78 146.086l11.59-.7" stroke-width="1.2" stroke="#00f" stroke-miterlimit="10" fill="none"/><path d="M68.81 167.55l-23.177 1.395M66.82 173.145l-18.543 1.117M81.605 186.93L68.81 167.55M45.633 168.945L35.25 189.72M35.25 189.72l12.797 19.374M41.09 188.645l10.234 15.5M48.047 209.094l23.18-1.395M71.227 207.7l10.378-20.77M67.375 203.18l8.305-16.618" stroke-width="1.2" stroke="#000" stroke-miterlimit="10" fill="none"/><path d="M102.37 145.387l7.376 8.968" stroke-width="1.2" stroke="#00f" stroke-miterlimit="10" fill="none"/><path d="M109.746 154.355l7.375 8.965M114.863 125.816l-6.246 9.786" stroke-width="1.2" stroke="#000" stroke-miterlimit="10" fill="none"/><path d="M108.617 135.602l-6.246 9.785" stroke-width="1.2" stroke="#00f" stroke-miterlimit="10" fill="none"/><path d="M99.37 139.887h7v11h-7zm0 0" fill="#fff"/><use xlink:href="#a" x="99.371" y="148.55" fill="#00f"/><path d="M114.477 162.633l-2.918 11.238" stroke-width="1.2" stroke="#000" stroke-miterlimit="10" fill="none"/><path d="M111.56 173.87l-2.92 11.24" stroke-width="1.2" stroke="#f00" stroke-miterlimit="10" fill="none"/><path d="M119.766 164.008l-2.918 11.234" stroke-width="1.2" stroke="#000" stroke-miterlimit="10" fill="none"/><path d="M116.848 175.242l-2.918 11.238" stroke-width="1.2" stroke="#f00" stroke-miterlimit="10" fill="none"/><path d="M138.734 154.832m-2.94.594l.382.97m-3.324-.376l.765 1.94m-3.703-1.343l1.14 2.91m-4.08-2.316l1.522 3.884m-4.465-3.29l1.907 4.852m-4.847-4.258l2.29 5.825m-5.228-5.227l2.668 6.793m-5.195-6.286l2.996 7.63" stroke="#000" stroke-miterlimit="10" fill="none"/><path d="M107.285 180.293h8v11h-8zm0 0" fill="#fff"/><use xlink:href="#b" x="107.285" y="188.956" fill="#f00"/><path d="M138.734 154.832l20.77 10.38M137.34 131.652l1.394 23.18M159.504 165.21l19.375-12.796" stroke-width="1.2" stroke="#000" stroke-miterlimit="10" fill="none"/><path d="M177.484 129.238m-.343 2.98l1.044-.062M176.8 135.2l2.083-.126m-2.426 3.106l3.12-.188m-3.464 3.168l4.164-.254m-4.507 3.235l5.207-.316m-5.55 3.297l6.245-.378m-6.586 3.356l7.285-.438m-7.58 3l8.18-.492" stroke="#000" stroke-miterlimit="10" fill="none"/><path d="M177.484 129.238l-18.937-14.047-3.664 7.33zm0 0"/><path d="M177.484 129.238l19.375-12.797M156.715 118.855l-19.375 12.797M156.715 118.855l-1.395-23.18" stroke-width="1.2" stroke="#000" stroke-miterlimit="10" fill="none"/><path d="M137.34 131.652l-21.445-9.8-2.06 7.93zm0 0"/><path d="M117.406 124.816l-4.242-10.804" stroke-width="1.2" stroke="#000" stroke-miterlimit="10" fill="none"/><path d="M113.164 114.012l-4.246-10.81" stroke-width="1.2" stroke="#f00" stroke-miterlimit="10" fill="none"/><path d="M112.32 126.816l-4.242-10.808" stroke-width="1.2" stroke="#000" stroke-miterlimit="10" fill="none"/><path d="M108.078 116.008l-4.246-10.805" stroke-width="1.2" stroke="#f00" stroke-miterlimit="10" fill="none"/><path d="M98.375 98.703h8v11h-8zm0 0" fill="#fff"/><use xlink:href="#b" x="98.375" y="107.366" fill="#f00"/><path d="M155.32 95.676l19.375-12.797" stroke-width="1.2" stroke="#000" stroke-miterlimit="10" fill="none"/><path d="M155.32 95.676m-2.41-1.785l-.465.934m-1.945-2.722l-.93 1.867m-1.476-3.654l-1.4 2.797m-1.01-4.586l-1.868 3.73m-.543-5.515l-2.332 4.664m-.077-6.453l-2.797 5.598m.387-7.382l-3.262 6.527m1.193-8.062l-3.664 7.328" stroke="#000" stroke-miterlimit="10" fill="none"/><path d="M174.695 82.88l20.77 10.382" stroke-width="1.2" stroke="#000" stroke-miterlimit="10" fill="none"/><path d="M174.695 82.88m.344-2.978l-1.04.063m1.383-3.043l-2.082.125m2.427-3.106l-3.125.19m3.464-3.17l-4.16.25m4.504-3.23l-5.203.313M176.754 65l-6.246.375m6.59-3.355l-7.286.437m7.58-3l-8.18.492" stroke="#000" stroke-miterlimit="10" fill="none"/><path d="M195.465 93.262l1.394 23.18M196.86 116.44l10.386 5.193" stroke-width="1.2" stroke="#000" stroke-miterlimit="10" fill="none"/><path d="M207.246 121.633l10.387 5.187" stroke-width="1.2" stroke="#00f" stroke-miterlimit="10" fill="none"/><path d="M196.496 122.367l8.31 4.153" stroke-width="1.2" stroke="#000" stroke-miterlimit="10" fill="none"/><path d="M204.805 126.52l8.308 4.152M217.633 126.82l.695 11.59" stroke-width="1.2" stroke="#00f" stroke-miterlimit="10" fill="none"/><path d="M218.328 138.41l.7 11.59" stroke-width="1.2" stroke="#f00" stroke-miterlimit="10" fill="none"/><path d="M214.633 121.32h7v11h-7zm0 0" fill="#fff"/><use xlink:href="#a" x="214.633" y="129.983" fill="#00f"/><path d="M219.027 150l10.383 5.19" stroke-width="1.2" stroke="#f00" stroke-miterlimit="10" fill="none"/><path d="M229.41 155.19l10.387 5.193" stroke-width="1.2" stroke="#000" stroke-miterlimit="10" fill="none"/><path d="M215.027 144.5h8v11h-8zm0 0" fill="#fff"/><use xlink:href="#b" x="215.027" y="153.163" fill="#f00"/><path d="M239.797 160.383l1.394 23.176M241.19 183.56l20.77 10.38M261.96 193.94l1.395 23.18M263.355 217.12l1.395 23.177M258.043 219.766l1.113 18.543M268.95 219.11l1.113 18.542" stroke-width="1.2" stroke="#000" stroke-miterlimit="10" fill="none"/><path d="M166.3 54.203h15v11h-15zm0 0" fill="#fff"/><g fill="#f00"><use xlink:href="#c" x="166.301" y="62.866"/><use xlink:href="#b" x="173.315" y="62.866"/></g><path d="M119.55 79.797h15v11h-15zm0 0" fill="#fff"/><g fill="#f00"><use xlink:href="#c" x="119.551" y="88.46"/><use xlink:href="#b" x="126.565" y="88.46"/></g></g></svg>
